apps/www/public/images/launchweek/ga/ga-black.svg

<svg width="104" height="57" viewBox="0 0 104 57" fill="none" xmlns="http://www.w3.org/2000/svg">
<path d="M6.79785 28.5004C6.79785 16.5217 16.4905 6.8111 28.4469 6.8111C35.3802 6.8111 41.5514 10.0726 45.5192 15.1615L50.8765 10.9689C45.6759 4.29878 37.5615 0.000366211 28.4469 0.000366211C12.736 0.000366211 -0.000244141 12.7602 -0.000244141 28.5004C-0.000244141 44.2405 12.736 57.0004 28.4469 57.0004C31.6722 57.0004 34.7718 56.4628 37.6615 55.4722V48.1323C34.8653 49.4519 31.7417 50.1896 28.4469 50.1896C16.4905 50.1896 6.79785 40.479 6.79785 28.5004Z" fill="#171717"/>
<path d="M44.436 34.3906H44.4596L44.4017 55.8945L51.0617 55.8944L51.1196 27.2181L27.4138 27.2181L27.4138 34.0288L44.436 34.0289L44.436 34.3906Z" fill="#171717"/>
<path d="M73.9419 10.3515L57.9177 42.1486V27.1601L70.9204 1.24544L76.9917 1.25492L104 55.8206H96.6312L73.9419 10.3515Z" fill="#171717"/>
<path d="M70.4344 49.0031H77.2478V55.8291H70.4344V49.0031Z" fill="#171717"/>
</svg>

<svg xmlns="http://www.w3.org/2000/svg" width="104" height="57" fill="none" viewBox="0 0 104 57"><path fill="#171717" d="M6.798 28.5c0-11.978 9.693-21.689 21.649-21.689 6.933 0 13.104 3.262 17.072 8.35l5.358-4.192C45.676 4.299 37.562 0 28.447 0 12.736 0 0 12.76 0 28.5S12.736 57 28.447 57c3.225 0 6.325-.537 9.214-1.528v-7.34a21.5 21.5 0 0 1-9.214 2.058c-11.956 0-21.65-9.711-21.65-21.69"/><path fill="#171717" d="M44.436 34.39h.024l-.058 21.505h6.66l.058-28.677H27.414v6.81h17.022zM73.942 10.352 57.918 42.149V27.16L70.92 1.245l6.072.01L104 55.82h-7.369zM70.434 49.003h6.814v6.826h-6.814z"/></svg>
